X: 4198
T: Mr. RILEY.
R: Jig
%R: jig
B: James Kerr "Merry Melodies" v.4 p.22 #198
Z: 2016 John Chambers <jc:trillian.mit.edu>
M: 6/8
L: 1/8
K: D
|:\
DED F2A | d2f e2g | fdf ecA | dfd ecA |\
DED F2A | d2f e2g | faf gec | d3- d2A :|
|:\
d2e fed | g2g g2f | e2f gfe | a2a a2g |\
fdf ecA | dfd ecA | faf gec | d3- d2A :|

%%sep 1 1 500
%%sep 1 1 500

